fs/smartwatch_20_regular.svg

<svg viewBox="0 0 20 20" fill="none" xmlns="http://www.w3.org/2000/svg" height="1em" width="1em">
  <path d="M6 5.26756V4C6 2.89543 6.89543 2 8 2H12C13.1046 2 14 2.89543 14 4V5.26756C14.5978 5.61337 15 6.25972 15 7V8C15.5523 8 16 8.44772 16 9V10C16 10.5523 15.5523 11 15 11V13C15 13.7403 14.5978 14.3866 14 14.7324V16C14 17.1046 13.1046 18 12 18H8C6.89543 18 6 17.1046 6 16L6 14.7324C5.4022 14.3866 5 13.7403 5 13V7C5 6.25972 5.4022 5.61337 6 5.26756ZM8 3C7.44772 3 7 3.44772 7 4V5H13V4C13 3.44772 12.5523 3 12 3H8ZM14 13V7C14 6.44772 13.5523 6 13 6H7C6.44772 6 6 6.44772 6 7V13C6 13.5518 6.44701 13.9993 6.99869 14L13.0005 14C13.5526 13.9997 14 13.5521 14 13ZM7 16C7 16.5523 7.44772 17 8 17H12C12.5523 17 13 16.5523 13 16V15H7V16Z" fill="#212121"/>
</svg>

<svg viewBox="0 0 20 20" fill="none" xmlns="http://www.w3.org/2000/svg" height="1em" width="1em">
  <path d="M6 5.268V4a2 2 0 0 1 2-2h4a2 2 0 0 1 2 2v1.268A2 2 0 0 1 15 7v1a1 1 0 0 1 1 1v1a1 1 0 0 1-1 1v2a2 2 0 0 1-1 1.732V16a2 2 0 0 1-2 2H8a2 2 0 0 1-2-2v-1.268A2 2 0 0 1 5 13V7a2 2 0 0 1 1-1.732ZM8 3a1 1 0 0 0-1 1v1h6V4a1 1 0 0 0-1-1H8Zm6 10V7a1 1 0 0 0-1-1H7a1 1 0 0 0-1 1v6a1 1 0 0 0 .999 1H13a1 1 0 0 0 1-1Zm-7 3a1 1 0 0 0 1 1h4a1 1 0 0 0 1-1v-1H7v1Z" fill="#212121"/>
</svg>
